X:1
T:BOLD MANNING
M:6/8
L:1/8
K:G
 D| DD D- D2 D| G2 G G2 G/2G/2| E2 E EEE| D3- D z D| G2 G A2 A| B/2 B3/2 B B2 B|\
 B2 G F2 G| A3- A z D| D2 E F2 G| G2 G B,2 B,| A,2 D D2 E| F3- F z F|\
 G2 GG-F E| D2 B, G,2 E| D2 G G2 F| G3- G z||
